public/assets/img/components/logo-socialite.svg

<svg xmlns="http://www.w3.org/2000/svg" width="346" height="70" viewBox="0 0 346 70">
  <defs>
    <linearGradient id="a" x1="50%" x2="50%" y1="0%" y2="100%">
      <stop stop-color="#E99CB7" offset="0%"/>
      <stop stop-color="#BC62CE" offset="100%"/>
    </linearGradient>
  </defs>
  <g fill="none" fill-rule="evenodd">
    <path fill="#2E2E2E" d="M87.5585938,44.7636719 L98.7558594,44.7636719 L98.7558594,49 L82.2851562,49 L82.2851562,23.40625 L87.5585938,23.40625 L87.5585938,44.7636719 Z M112.466797,49 C112.232421,48.5429665 112.062501,47.9746128 111.957031,47.2949219 C110.726556,48.6660225 109.126963,49.3515625 107.158203,49.3515625 C105.294913,49.3515625 103.750983,48.8125054 102.526367,47.734375 C101.301752,46.6562446 100.689453,45.2968832 100.689453,43.65625 C100.689453,41.6406149 101.436516,40.0937554 102.930664,39.015625 C104.424812,37.9374946 106.58397,37.3925782 109.408203,37.3808594 L111.746094,37.3808594 L111.746094,36.2910156 C111.746094,35.412105 111.52051,34.708987 111.069336,34.1816406 C110.618162,33.6542942 109.906255,33.390625 108.933594,33.390625 C108.078121,33.390625 107.407229,33.5957011 106.920898,34.0058594 C106.434568,34.4160177 106.191406,34.9785121 106.191406,35.6933594 L101.111328,35.6933594 C101.111328,34.5917914 101.451168,33.5722703 102.130859,32.6347656 C102.81055,31.6972609 103.771478,30.9619167 105.013672,30.4287109 C106.255866,29.8955051 107.650383,29.6289062 109.197266,29.6289062 C111.541027,29.6289062 113.40136,30.2177675 114.77832,31.3955078 C116.15528,32.5732481 116.84375,34.228505 116.84375,36.3613281 L116.84375,44.6054688 C116.855469,46.4101653 117.107419,47.775386 117.599609,48.7011719 L117.599609,49 L112.466797,49 Z M108.265625,45.4667969 C109.015629,45.4667969 109.707028,45.2998064 110.339844,44.9658203 C110.972659,44.6318343 111.441405,44.1835966 111.746094,43.6210938 L111.746094,40.3515625 L109.847656,40.3515625 C107.304675,40.3515625 105.951173,41.23046 105.787109,42.9882812 L105.769531,43.2871094 C105.769531,43.919925 105.992185,44.4414042 106.4375,44.8515625 C106.882815,45.2617208 107.492184,45.4667969 108.265625,45.4667969 Z M131.433594,34.7441406 C130.742184,34.6503902 130.132815,34.6035156 129.605469,34.6035156 C127.683584,34.6035156 126.423831,35.2538997 125.826172,36.5546875 L125.826172,49 L120.746094,49 L120.746094,29.9804688 L125.544922,29.9804688 L125.685547,32.2480469 C126.705083,30.5019444 128.117178,29.6289062 129.921875,29.6289062 C130.484378,29.6289062 131.011716,29.7050774 131.503906,29.8574219 L131.433594,34.7441406 Z M144.371094,49 C144.136718,48.5429665 143.966797,47.9746128 143.861328,47.2949219 C142.630853,48.6660225 141.03126,49.3515625 139.0625,49.3515625 C137.199209,49.3515625 135.65528,48.8125054 134.430664,47.734375 C133.206049,46.6562446 132.59375,45.2968832 132.59375,43.65625 C132.59375,41.6406149 133.340813,40.0937554 134.834961,39.015625 C136.329109,37.9374946 138.488267,37.3925782 141.3125,37.3808594 L143.650391,37.3808594 L143.650391,36.2910156 C143.650391,35.412105 143.424807,34.708987 142.973633,34.1816406 C142.522459,33.6542942 141.810552,33.390625 140.837891,33.390625 C139.982418,33.390625 139.311526,33.5957011 138.825195,34.0058594 C138.338865,34.4160177 138.095703,34.9785121 138.095703,35.6933594 L133.015625,35.6933594 C133.015625,34.5917914 133.355465,33.5722703 134.035156,32.6347656 C134.714847,31.6972609 135.675775,30.9619167 136.917969,30.4287109 C138.160162,29.8955051 139.55468,29.6289062 141.101562,29.6289062 C143.445324,29.6289062 145.305657,30.2177675 146.682617,31.3955078 C148.059577,32.5732481 148.748047,34.228505 148.748047,36.3613281 L148.748047,44.6054688 C148.759766,46.4101653 149.011716,47.775386 149.503906,48.7011719 L149.503906,49 L144.371094,49 Z M140.169922,45.4667969 C140.919926,45.4667969 141.611325,45.2998064 142.244141,44.9658203 C142.876956,44.6318343 143.345702,44.1835966 143.650391,43.6210938 L143.650391,40.3515625 L141.751953,40.3515625 C139.208972,40.3515625 137.85547,41.23046 137.691406,42.9882812 L137.673828,43.2871094 C137.673828,43.919925 137.896482,44.4414042 138.341797,44.8515625 C138.787112,45.2617208 139.396481,45.4667969 140.169922,45.4667969 Z M159.505859,42.7949219 L163.039062,29.9804688 L168.347656,29.9804688 L161.931641,49 L157.080078,49 L150.664062,29.9804688 L155.972656,29.9804688 L159.505859,42.7949219 Z M179.105469,49.3515625 C176.316392,49.3515625 174.045907,48.4961023 172.293945,46.7851562 C170.541983,45.0742102 169.666016,42.7949361 169.666016,39.9472656 L169.666016,39.4550781 C169.666016,37.5449123 170.035153,35.8369216 170.773438,34.3310547 C171.511722,32.8251878 172.55761,31.6650431 173.911133,30.8505859 C175.264655,30.0361287 176.808585,29.6289062 178.542969,29.6289062 C181.144544,29.6289062 183.192375,30.4492105 184.686523,32.0898438 C186.180672,33.730477 186.927734,36.0566256 186.927734,39.0683594 L186.927734,41.1425781 L174.816406,41.1425781 C174.98047,42.3847718 175.475582,43.3808556 176.301758,44.1308594 C177.127934,44.8808631 178.173822,45.2558594 179.439453,45.2558594 C181.396494,45.2558594 182.925776,44.5468821 184.027344,43.1289062 L186.523438,45.9238281 C185.761715,47.0019585 184.730475,47.8427704 183.429688,48.4462891 C182.1289,49.0498077 180.687508,49.3515625 179.105469,49.3515625 Z M178.525391,33.7421875 C177.517573,33.7421875 176.700198,34.0820279 176.073242,34.7617188 C175.446286,35.4414096 175.044923,36.4140562 174.869141,37.6796875 L181.935547,37.6796875 L181.935547,37.2753906 C181.912109,36.150385 181.607425,35.2802765 181.021484,34.6650391 C180.435544,34.0498016 179.603521,33.7421875 178.525391,33.7421875 Z M195.171875,49 L190.074219,49 L190.074219,22 L195.171875,22 L195.171875,49 Z M223.876953,42.7070312 C223.876953,41.2890554 223.378911,40.1669963 222.382812,39.3408203 C221.386714,38.5146443 219.564466,37.7294959 216.916016,36.9853516 C214.267565,36.2412072 212.33399,35.4296919 211.115234,34.5507812 C209.380851,33.3085875 208.513672,31.6796976 208.513672,29.6640625 C208.513672,27.7070215 209.319328,26.1162171 210.930664,24.8916016 C212.542,23.6669861 214.60155,23.0546875 217.109375,23.0546875 C218.808602,23.0546875 220.329095,23.3828092 221.670898,24.0390625 C223.012702,24.6953158 224.052731,25.6093691 224.791016,26.78125 C225.529301,27.9531309 225.898438,29.2597584 225.898438,30.7011719 L223.71875,30.7011719 C223.71875,28.9550694 223.1211,27.5517631 221.925781,26.4912109 C220.730463,25.4306588 219.12501,24.9003906 217.109375,24.9003906 C215.152334,24.9003906 213.593756,25.3369097 212.433594,26.2099609 C211.273432,27.0830122 210.693359,28.2226492 210.693359,29.6289062 C210.693359,30.929694 211.214839,31.9902303 212.257812,32.8105469 C213.300786,33.6308635 214.970692,34.3544891 217.267578,34.9814453 C219.564465,35.6084016 221.304682,36.2587857 222.488281,36.9326172 C223.671881,37.6064487 224.562497,38.4121047 225.160156,39.3496094 C225.757815,40.2871141 226.056641,41.3945249 226.056641,42.671875 C226.056641,44.6875101 225.250985,46.3046814 223.639648,47.5234375 C222.028312,48.7421936 219.90431,49.3515625 217.267578,49.3515625 C215.462882,49.3515625 213.807625,49.0293001 212.301758,48.3847656 C210.795891,47.7402312 209.653324,46.8378964 208.874023,45.6777344 C208.094723,44.5175723 207.705078,43.1875075 207.705078,41.6875 L209.867188,41.6875 C209.867188,43.4921965 210.541009,44.9160104 211.888672,45.9589844 C213.236335,47.0019583 215.029286,47.5234375 217.267578,47.5234375 C219.259776,47.5234375 220.859369,47.0839888 222.066406,46.2050781 C223.273444,45.3261675 223.876953,44.1601635 223.876953,42.7070312 Z M229.0625,39.2089844 C229.0625,37.3808502 229.416989,35.7343823 230.125977,34.2695312 C230.834964,32.8046802 231.836908,31.6650431 233.131836,30.8505859 C234.426764,30.0361287 235.894523,29.6289062 237.535156,29.6289062 C240.066419,29.6289062 242.11718,30.5165927 243.6875,32.2919922 C245.25782,34.0673917 246.042969,36.4199072 246.042969,39.3496094 L246.042969,39.7890625 C246.042969,41.6289154 245.68848,43.2841723 244.979492,44.7548828 C244.270504,46.2255933 243.271491,47.359371 241.982422,48.15625 C240.693353,48.953129 239.222665,49.3515625 237.570312,49.3515625 C235.050769,49.3515625 233.002938,48.4638761 231.426758,46.6884766 C229.850578,44.9130771 229.0625,42.5605615 229.0625,39.6308594 L229.0625,39.2089844 Z M231.171875,39.7890625 C231.171875,42.0625114 231.760736,43.9287036 232.938477,45.3876953 C234.116217,46.846687 235.660147,47.5761719 237.570312,47.5761719 C239.468759,47.5761719 241.00683,46.846687 242.18457,45.3876953 C243.362311,43.9287036 243.951172,42.0039182 243.951172,39.6132812 L243.951172,39.2089844 C243.951172,37.7558521 243.681643,36.4257873 243.142578,35.21875 C242.603513,34.0117127 241.847661,33.0771517 240.875,32.4150391 C239.902339,31.7529264 238.789069,31.421875 237.535156,31.421875 C235.660147,31.421875 234.130865,32.1572192 232.947266,33.6279297 C231.763666,35.0986402 231.171875,37.0234256 231.171875,39.4023438 L231.171875,39.7890625 Z M257.416016,47.5761719 C258.880867,47.5761719 260.108393,47.1630901 261.098633,46.3369141 C262.088872,45.5107381 262.625,44.4414128 262.707031,43.1289062 L264.728516,43.1289062 C264.669922,44.2890683 264.306644,45.3466749 263.638672,46.3017578 C262.9707,47.2568407 262.083013,48.0039036 260.975586,48.5429688 C259.868159,49.0820339 258.681647,49.3515625 257.416016,49.3515625 C254.919909,49.3515625 252.94239,48.4843837 251.483398,46.75 C250.024407,45.0156163 249.294922,42.6836084 249.294922,39.7539062 L249.294922,39.1210938 C249.294922,37.2460844 249.623044,35.5878978 250.279297,34.1464844 C250.93555,32.7050709 251.87597,31.5918008 253.100586,30.8066406 C254.325201,30.0214804 255.757804,29.6289062 257.398438,29.6289062 C259.484385,29.6289062 261.204095,30.2499938 262.557617,31.4921875 C263.91114,32.7343812 264.634765,34.3691305 264.728516,36.3964844 L262.707031,36.3964844 C262.613281,34.9081957 262.077153,33.7070358 261.098633,32.7929688 C260.120112,31.8789017 258.886726,31.421875 257.398438,31.421875 C255.499991,31.421875 254.026372,32.107415 252.977539,33.4785156 C251.928706,34.8496162 251.404297,36.771472 251.404297,39.2441406 L251.404297,39.859375 C251.404297,42.2851684 251.928706,44.1777276 252.977539,45.5371094 C254.026372,46.8964912 255.50585,47.5761719 257.416016,47.5761719 Z M271.285156,49 L269.175781,49 L269.175781,29.9804688 L271.285156,29.9804688 L271.285156,49 Z M268.806641,24.4785156 C268.806641,24.0800761 268.935546,23.7431654 269.193359,23.4677734 C269.451173,23.1923814 269.802732,23.0546875 270.248047,23.0546875 C270.693362,23.0546875 271.04785,23.1923814 271.311523,23.4677734 C271.575197,23.7431654 271.707031,24.0800761 271.707031,24.4785156 C271.707031,24.8769551 271.575197,25.2109362 271.311523,25.4804688 C271.04785,25.7500013 270.693362,25.8847656 270.248047,25.8847656 C269.802732,25.8847656 269.451173,25.7500013 269.193359,25.4804688 C268.935546,25.2109362 268.806641,24.8769551 268.806641,24.4785156 Z M289.003906,49 C288.792968,48.4023408 288.658203,47.517584 288.599609,46.3457031 C287.861324,47.3066454 286.920904,48.047849 285.77832,48.5693359 C284.635736,49.0908229 283.425788,49.3515625 282.148438,49.3515625 C280.320303,49.3515625 278.840826,48.841802 277.709961,47.8222656 C276.579096,46.8027293 276.013672,45.5136797 276.013672,43.9550781 C276.013672,42.1035064 276.784172,40.6386773 278.325195,39.5605469 C279.866219,38.4824165 282.013658,37.9433594 284.767578,37.9433594 L288.582031,37.9433594 L288.582031,35.78125 C288.582031,34.4218682 288.16309,33.352543 287.325195,32.5732422 C286.4873,31.7939414 285.265633,31.4042969 283.660156,31.4042969 C282.195305,31.4042969 280.982427,31.7792931 280.021484,32.5292969 C279.060542,33.2793006 278.580078,34.1816354 278.580078,35.2363281 L276.470703,35.21875 C276.470703,33.7070237 277.173821,32.3974665 278.580078,31.2900391 C279.986335,30.1826117 281.714833,29.6289062 283.765625,29.6289062 C285.886729,29.6289062 287.559564,30.1591744 288.78418,31.2197266 C290.008795,32.2802787 290.638672,33.7597561 290.673828,35.6582031 L290.673828,44.6582031 C290.673828,46.4980561 290.867186,47.8749954 291.253906,48.7890625 L291.253906,49 L289.003906,49 Z M282.394531,47.4882812 C283.800788,47.4882812 285.057612,47.1484409 286.165039,46.46875 C287.272466,45.7890591 288.078122,44.8808651 288.582031,43.7441406 L288.582031,39.5605469 L284.820312,39.5605469 C282.722646,39.5839845 281.082037,39.9677697 279.898438,40.7119141 C278.714838,41.4560584 278.123047,42.4785091 278.123047,43.7792969 C278.123047,44.8457085 278.518551,45.7304652 279.30957,46.4335938 C280.10059,47.1367223 281.1289,47.4882812 282.394531,47.4882812 Z M298.636719,49 L296.527344,49 L296.527344,22 L298.636719,22 L298.636719,49 Z M306.705078,49 L304.595703,49 L304.595703,29.9804688 L306.705078,29.9804688 L306.705078,49 Z M304.226562,24.4785156 C304.226562,24.0800761 304.355467,23.7431654 304.613281,23.4677734 C304.871095,23.1923814 305.222654,23.0546875 305.667969,23.0546875 C306.113283,23.0546875 306.467772,23.1923814 306.731445,23.4677734 C306.995119,23.7431654 307.126953,24.0800761 307.126953,24.4785156 C307.126953,24.8769551 306.995119,25.2109362 306.731445,25.4804688 C306.467772,25.7500013 306.113283,25.8847656 305.667969,25.8847656 C305.222654,25.8847656 304.871095,25.7500013 304.613281,25.4804688 C304.355467,25.2109362 304.226562,24.8769551 304.226562,24.4785156 Z M315.6875,25.1113281 L315.6875,29.9804688 L319.625,29.9804688 L319.625,31.703125 L315.6875,31.703125 L315.6875,44.3769531 C315.6875,45.4316459 315.877928,46.2167943 316.258789,46.7324219 C316.63965,47.2480495 317.275386,47.5058594 318.166016,47.5058594 C318.51758,47.5058594 319.085934,47.4472662 319.871094,47.3300781 L319.958984,49.0527344 C319.4082,49.2519541 318.658208,49.3515625 317.708984,49.3515625 C316.267571,49.3515625 315.218753,48.9326214 314.5625,48.0947266 C313.906247,47.2568317 313.578125,46.0234456 313.578125,44.3945312 L313.578125,31.703125 L310.080078,31.703125 L310.080078,29.9804688 L313.578125,29.9804688 L313.578125,25.1113281 L315.6875,25.1113281 Z M331.349609,49.3515625 C329.732414,49.3515625 328.270514,48.953129 326.963867,48.15625 C325.65722,47.359371 324.640629,46.2490306 323.914062,44.8251953 C323.187496,43.4013601 322.824219,41.8046963 322.824219,40.0351562 L322.824219,39.2792969 C322.824219,37.4511627 323.178707,35.8046948 323.887695,34.3398438 C324.596683,32.8749927 325.583978,31.723637 326.849609,30.8857422 C328.115241,30.0478474 329.486321,29.6289062 330.962891,29.6289062 C333.271496,29.6289062 335.102532,30.4169843 336.456055,31.9931641 C337.809577,33.5693438 338.486328,35.7226426 338.486328,38.453125 L338.486328,39.6308594 L324.916016,39.6308594 L324.916016,40.0351562 C324.916016,42.191417 325.534174,43.9872975 326.770508,45.4228516 C328.006842,46.8584056 329.562491,47.5761719 331.4375,47.5761719 C332.562506,47.5761719 333.55566,47.3710958 334.416992,46.9609375 C335.278325,46.5507792 336.060543,45.8945358 336.763672,44.9921875 L338.082031,45.9941406 C336.535149,48.2324331 334.29103,49.3515625 331.349609,49.3515625 Z M330.962891,31.421875 C329.380851,31.421875 328.047857,32.0019473 326.963867,33.1621094 C325.879877,34.3222714 325.220704,35.8808496 324.986328,37.8378906 L336.394531,37.8378906 L336.394531,37.609375 C336.335937,35.7812409 335.814458,34.2929745 334.830078,33.1445312 C333.845698,31.996088 332.556649,31.421875 330.962891,31.421875 Z"/>
    <path fill="url(#a)" d="M30,60.8 L30,34 L2,6 L2,2 L66,2 L66,6 L38,34 L38,60.8 L54,64 L54,68 L14,68 L14,64 L30,60.8 Z M44,18.316 C47.3137085,18.316 50,15.6297085 50,12.316 C50,9.0022915 47.3137085,6.316 44,6.316 C40.6862915,6.316 38,9.0022915 38,12.316 C38,15.6297085 40.6862915,18.316 44,18.316 Z"/>
  </g>
</svg>

<svg xmlns="http://www.w3.org/2000/svg" width="346" height="70" viewBox="0 0 346 70"><defs><linearGradient id="a" x1="50%" x2="50%" y1="0%" y2="100%"><stop stop-color="#E99CB7" offset="0%"/><stop stop-color="#BC62CE" offset="100%"/></linearGradient></defs><g fill="none" fill-rule="evenodd"><path fill="#2E2E2E" d="M87.56 44.764h11.196V49h-16.47V23.406h5.273v21.358zM112.466 49c-.235-.457-.404-1.025-.51-1.705-1.23 1.37-2.83 2.057-4.8 2.057-1.862 0-3.406-.54-4.63-1.618-1.225-1.078-1.838-2.437-1.838-4.078 0-2.015.747-3.562 2.24-4.64 1.495-1.08 3.654-1.623 6.478-1.635h2.338v-1.09c0-.878-.225-1.58-.677-2.108-.452-.528-1.164-.79-2.136-.79-.856 0-1.527.204-2.013.614-.485.41-.73.973-.73 1.687h-5.08c0-1.1.34-2.12 1.02-3.058.68-.938 1.64-1.673 2.884-2.206 1.242-.534 2.636-.8 4.183-.8 2.344 0 4.204.588 5.58 1.766 1.378 1.177 2.067 2.833 2.067 4.965v8.245c.01 1.805.263 3.17.756 4.096v.3h-5.133zm-4.2-3.533c.75 0 1.44-.167 2.073-.5.633-.335 1.1-.783 1.406-1.346v-3.268h-1.898c-2.543 0-3.897.878-4.06 2.636l-.018.3c0 .632.222 1.153.668 1.564.445.41 1.054.615 1.828.615zm23.167-10.723c-.692-.094-1.3-.14-1.83-.14-1.92 0-3.18.65-3.778 1.95V49h-5.08V29.98h4.8l.14 2.268c1.02-1.746 2.43-2.62 4.236-2.62.562 0 1.09.077 1.582.23l-.07 4.886zM144.37 49c-.233-.457-.403-1.025-.51-1.705-1.23 1.37-2.83 2.057-4.798 2.057-1.863 0-3.407-.54-4.63-1.618-1.226-1.078-1.838-2.437-1.838-4.078 0-2.015.747-3.562 2.24-4.64 1.495-1.08 3.654-1.623 6.478-1.635h2.338v-1.09c0-.878-.225-1.58-.676-2.108-.452-.528-1.163-.79-2.136-.79-.856 0-1.526.204-2.013.614-.486.41-.73.973-.73 1.687h-5.08c0-1.1.34-2.12 1.02-3.058.68-.938 1.64-1.673 2.883-2.206 1.242-.534 2.637-.8 4.184-.8 2.343 0 4.204.588 5.58 1.766 1.378 1.177 2.066 2.833 2.066 4.965v8.245c.012 1.805.264 3.17.756 4.096v.3h-5.133zm-4.2-3.533c.75 0 1.44-.167 2.074-.5.633-.335 1.102-.783 1.406-1.346v-3.268h-1.898c-2.543 0-3.897.878-4.06 2.636l-.018.3c0 .632.222 1.153.668 1.564.445.41 1.054.615 1.828.615zm19.336-2.672l3.533-12.815h5.308L161.932 49h-4.852l-6.416-19.02h5.31l3.532 12.815zm19.6 6.557c-2.79 0-5.06-.856-6.812-2.567-1.752-1.71-2.628-3.99-2.628-6.838v-.492c0-1.91.37-3.618 1.107-5.124.74-1.505 1.785-2.665 3.138-3.48 1.355-.814 2.9-1.22 4.633-1.22 2.602 0 4.65.82 6.144 2.46 1.494 1.64 2.24 3.967 2.24 6.978v2.075h-12.11c.163 1.242.66 2.238 1.485 2.988.826.75 1.872 1.126 3.137 1.126 1.956 0 3.486-.71 4.587-2.127l2.496 2.794c-.76 1.078-1.793 1.92-3.093 2.522-1.3.604-2.742.906-4.325.906zm-.58-15.61c-1.008 0-1.826.34-2.453 1.02-.627.68-1.028 1.652-1.204 2.918h7.066v-.405c-.024-1.125-.33-1.995-.915-2.61-.584-.615-1.416-.923-2.495-.923zM195.17 49h-5.098V22h5.098v27zm28.705-6.293c0-1.418-.498-2.54-1.494-3.366-.996-.825-2.82-1.61-5.467-2.355-2.648-.744-4.582-1.555-5.8-2.434-1.735-1.24-2.602-2.87-2.602-4.886 0-1.957.805-3.548 2.417-4.772 1.612-1.225 3.672-1.837 6.18-1.837 1.7 0 3.22.328 4.56.984 1.343.655 2.383 1.57 3.12 2.74.74 1.173 1.108 2.48 1.108 3.92h-2.18c0-1.745-.597-3.148-1.792-4.21-1.196-1.06-2.8-1.59-4.817-1.59-1.958 0-3.516.437-4.676 1.31-1.16.873-1.74 2.013-1.74 3.42 0 1.3.52 2.36 1.564 3.18 1.043.82 2.713 1.544 5.01 2.17 2.296.628 4.037 1.28 5.22 1.953 1.184.673 2.074 1.48 2.672 2.417.598.937.897 2.045.897 3.322 0 2.016-.806 3.633-2.417 4.85-1.612 1.22-3.736 1.83-6.372 1.83-1.805 0-3.46-.323-4.966-.967-1.506-.645-2.65-1.547-3.428-2.707-.78-1.16-1.17-2.49-1.17-3.99h2.163c0 1.804.674 3.228 2.022 4.27 1.346 1.044 3.14 1.565 5.378 1.565 1.992 0 3.59-.44 4.798-1.318 1.207-.88 1.81-2.045 1.81-3.498zm5.185-3.498c0-1.83.355-3.476 1.064-4.94.71-1.465 1.71-2.605 3.006-3.42 1.295-.814 2.763-1.22 4.403-1.22 2.53 0 4.582.887 6.153 2.662 1.57 1.775 2.355 4.128 2.355 7.058v.44c0 1.84-.355 3.494-1.064 4.965-.71 1.47-1.71 2.604-2.998 3.4-1.29.798-2.76 1.197-4.412 1.197-2.52 0-4.567-.888-6.143-2.664-1.576-1.775-2.364-4.127-2.364-7.057v-.42zm2.11.58c0 2.273.59 4.14 1.766 5.598 1.178 1.46 2.722 2.188 4.632 2.188 1.9 0 3.437-.73 4.615-2.188 1.177-1.46 1.766-3.384 1.766-5.775v-.404c0-1.454-.268-2.784-.807-3.99-.54-1.208-1.295-2.143-2.268-2.805-.973-.662-2.086-.993-3.34-.993-1.875 0-3.404.735-4.588 2.206-1.183 1.47-1.775 3.395-1.775 5.774v.387zm26.244 7.786c1.465 0 2.692-.413 3.683-1.24.99-.825 1.525-1.895 1.607-3.207h2.022c-.06 1.16-.423 2.217-1.09 3.172-.67.955-1.557 1.702-2.664 2.24-1.108.54-2.294.81-3.56.81-2.496 0-4.474-.868-5.933-2.602-1.46-1.734-2.188-4.066-2.188-6.996v-.633c0-1.874.328-3.532.984-4.974.656-1.44 1.596-2.554 2.82-3.34 1.225-.785 2.658-1.177 4.298-1.177 2.086 0 3.806.62 5.16 1.862 1.353 1.242 2.077 2.877 2.17 4.904h-2.02c-.095-1.488-.63-2.69-1.61-3.603-.978-.914-2.21-1.37-3.7-1.37-1.898 0-3.372.684-4.42 2.056-1.05 1.37-1.574 3.29-1.574 5.764v.615c0 2.425.525 4.318 1.574 5.677 1.048 1.36 2.528 2.04 4.438 2.04zM271.286 49h-2.11V29.98h2.11V49zm-2.48-24.52c0-.4.13-.737.387-1.012.258-.276.61-.413 1.055-.413.445 0 .8.137 1.064.413.263.275.395.612.395 1.01 0 .4-.132.733-.395 1.002-.264.27-.62.405-1.064.405-.445 0-.797-.135-1.055-.405-.257-.27-.386-.603-.386-1zM289.005 49c-.21-.598-.346-1.482-.404-2.654-.74.96-1.68 1.702-2.822 2.223-1.142.52-2.352.782-3.63.782-1.828 0-3.307-.51-4.438-1.53-1.13-1.02-1.696-2.308-1.696-3.867 0-1.85.77-3.316 2.31-4.394 1.542-1.078 3.69-1.617 6.444-1.617h3.814V35.78c0-1.358-.42-2.427-1.257-3.207-.838-.78-2.06-1.17-3.665-1.17-1.465 0-2.678.376-3.64 1.126-.96.75-1.44 1.652-1.44 2.706l-2.11-.017c0-1.513.704-2.823 2.11-3.93 1.406-1.107 3.135-1.66 5.186-1.66 2.12 0 3.794.53 5.018 1.59 1.225 1.06 1.855 2.54 1.89 4.438v9c0 1.84.193 3.217.58 4.13V49h-2.25zm-6.61-1.512c1.407 0 2.664-.34 3.77-1.02 1.108-.68 1.914-1.587 2.418-2.724V39.56h-3.762c-2.097.024-3.738.408-4.922 1.152-1.183.744-1.775 1.767-1.775 3.067 0 1.066.396 1.95 1.187 2.654.79.703 1.82 1.054 3.085 1.054zM298.638 49h-2.11V22h2.11v27zm8.068 0h-2.11V29.98h2.11V49zm-2.478-24.52c0-.4.128-.737.386-1.012.258-.276.61-.413 1.055-.413.445 0 .8.137 1.063.413.265.275.397.612.397 1.01 0 .4-.132.733-.396 1.002-.262.27-.617.405-1.062.405-.445 0-.797-.135-1.055-.405-.258-.27-.386-.603-.386-1zm11.46.63v4.87h3.938v1.723h-3.938v12.674c0 1.055.19 1.84.572 2.355.38.516 1.015.774 1.906.774.352 0 .92-.06 1.705-.176l.09 1.723c-.552.2-1.302.3-2.25.3-1.442 0-2.49-.42-3.147-1.258-.657-.838-.985-2.072-.985-3.7V31.703h-3.498V29.98h3.498v-4.87h2.11zm15.663 24.242c-1.618 0-3.08-.4-4.386-1.196-1.307-.797-2.323-1.907-3.05-3.33-.727-1.425-1.09-3.02-1.09-4.79v-.757c0-1.83.355-3.475 1.064-4.94.71-1.465 1.696-2.616 2.962-3.454 1.265-.838 2.636-1.257 4.113-1.257 2.308 0 4.14.787 5.493 2.363 1.354 1.576 2.03 3.73 2.03 6.46v1.178h-13.57v.405c0 2.156.618 3.952 1.855 5.388 1.237 1.435 2.792 2.153 4.668 2.153 1.125 0 2.118-.205 2.98-.615.86-.41 1.643-1.065 2.346-1.968l1.318 1.002c-1.547 2.238-3.79 3.358-6.732 3.358zm-.387-17.93c-1.582 0-2.915.58-4 1.74-1.083 1.16-1.742 2.72-1.977 4.676h11.41v-.23c-.06-1.827-.582-3.315-1.566-4.463-.984-1.15-2.273-1.723-3.867-1.723z"/><path fill="url(#a)" d="M30 60.8V34L2 6V2h64v4L38 34v26.8L54 64v4H14v-4l16-3.2zm14-42.484c3.314 0 6-2.686 6-6s-2.686-6-6-6-6 2.686-6 6 2.686 6 6 6z"/></g></svg>
